public/images/screen-overlay.svg

<svg xmlns="http://www.w3.org/2000/svg" width="1740" height="1376" fill="none" viewBox="0 0 1740 1376"><g filter="url(#a)"><path fill="#013201" d="M106.777 201.067c7.771-48.199 46.432-85.685 94.802-92.094 508.7-67.401 826.941-67.534 1336.571-.027 48.48 6.421 87.17 44.014 94.89 92.325 63.33 396.708 65.11 594.203.83 989.859-8.1 49.84-49.15 87.83-99.41 92.41-512.15 46.74-829.201 44.24-1328.576-.19-50.458-4.49-91.692-42.55-99.805-92.58-62.646-386.308-64.808-583.45.698-989.703"/></g><defs><filter id="a" width="1739.68" height="1376.01" x="0" y="0" color-interpolation-filters="sRGB" filterUnits="userSpaceOnUse"><feFlood flood-opacity="0" result="BackgroundImageFix"/><feColorMatrix in="SourceAlpha" result="hardAlpha" values="0 0 0 0 0 0 0 0 0 0 0 0 0 0 0 0 0 0 127 0"/><feOffset/><feGaussianBlur stdDeviation=".695"/><feColorMatrix values="0 0 0 0 0.878431 0 0 0 0 1 0 0 0 0 0.878431 0 0 0 1 0"/><feBlend in2="BackgroundImageFix" result="effect1_dropShadow_1_11"/><feColorMatrix in="SourceAlpha" result="hardAlpha" values="0 0 0 0 0 0 0 0 0 0 0 0 0 0 0 0 0 0 127 0"/><feOffset/><feGaussianBlur stdDeviation="1.39"/><feColorMatrix values="0 0 0 0 0.878431 0 0 0 0 1 0 0 0 0 0.878431 0 0 0 1 0"/><feBlend in2="effect1_dropShadow_1_11" result="effect2_dropShadow_1_11"/><feColorMatrix in="SourceAlpha" result="hardAlpha" values="0 0 0 0 0 0 0 0 0 0 0 0 0 0 0 0 0 0 127 0"/><feOffset/><feGaussianBlur stdDeviation="4.864"/><feColorMatrix values="0 0 0 0 0.878431 0 0 0 0 1 0 0 0 0 0.878431 0 0 0 1 0"/><feBlend in2="effect2_dropShadow_1_11" result="effect3_dropShadow_1_11"/><feColorMatrix in="SourceAlpha" result="hardAlpha" values="0 0 0 0 0 0 0 0 0 0 0 0 0 0 0 0 0 0 127 0"/><feOffset/><feGaussianBlur stdDeviation="9.728"/><feColorMatrix values="0 0 0 0 0.878431 0 0 0 0 1 0 0 0 0 0.878431 0 0 0 1 0"/><feBlend in2="effect3_dropShadow_1_11" result="effect4_dropShadow_1_11"/><feColorMatrix in="SourceAlpha" result="hardAlpha" values="0 0 0 0 0 0 0 0 0 0 0 0 0 0 0 0 0 0 127 0"/><feOffset/><feGaussianBlur stdDeviation="16.677"/><feColorMatrix values="0 0 0 0 0.878431 0 0 0 0 1 0 0 0 0 0.878431 0 0 0 1 0"/><feBlend in2="effect4_dropShadow_1_11" result="effect5_dropShadow_1_11"/><feColorMatrix in="SourceAlpha" result="hardAlpha" values="0 0 0 0 0 0 0 0 0 0 0 0 0 0 0 0 0 0 127 0"/><feOffset/><feGaussianBlur stdDeviation="29.184"/><feColorMatrix values="0 0 0 0 0.878431 0 0 0 0 1 0 0 0 0 0.878431 0 0 0 1 0"/><feBlend in2="effect5_dropShadow_1_11" result="effect6_dropShadow_1_11"/><feBlend in="SourceGraphic" in2="effect6_dropShadow_1_11" result="shape"/></filter></defs></svg>

<svg width="1740" height="1376" viewBox="0 0 1740 1376" fill="none" xmlns="http://www.w3.org/2000/svg">
<g filter="url(#filter0_dddddd_1_11)">
<path d="M106.777 201.067C114.548 152.868 153.209 115.382 201.579 108.973C710.279 41.5717 1028.52 41.4393 1538.15 108.946C1586.63 115.367 1625.32 152.96 1633.04 201.271C1696.37 597.979 1698.15 795.474 1633.87 1191.13C1625.77 1240.97 1584.72 1278.96 1534.46 1283.54C1022.31 1330.28 705.259 1327.78 205.884 1283.35C155.426 1278.86 114.192 1240.8 106.079 1190.77C43.4325 804.462 41.2705 607.32 106.777 201.067Z" fill="#013201"/>
</g>
<defs>
<filter id="filter0_dddddd_1_11" x="0" y="3.8147e-06" width="1739.68" height="1376.01" filterUnits="userSpaceOnUse" color-interpolation-filters="sRGB">
<feFlood flood-opacity="0" result="BackgroundImageFix"/>
<feColorMatrix in="SourceAlpha" type="matrix" values="0 0 0 0 0 0 0 0 0 0 0 0 0 0 0 0 0 0 127 0" result="hardAlpha"/>
<feOffset/>
<feGaussianBlur stdDeviation="0.694868"/>
<feColorMatrix type="matrix" values="0 0 0 0 0.878431 0 0 0 0 1 0 0 0 0 0.878431 0 0 0 1 0"/>
<feBlend mode="normal" in2="BackgroundImageFix" result="effect1_dropShadow_1_11"/>
<feColorMatrix in="SourceAlpha" type="matrix" values="0 0 0 0 0 0 0 0 0 0 0 0 0 0 0 0 0 0 127 0" result="hardAlpha"/>
<feOffset/>
<feGaussianBlur stdDeviation="1.38974"/>
<feColorMatrix type="matrix" values="0 0 0 0 0.878431 0 0 0 0 1 0 0 0 0 0.878431 0 0 0 1 0"/>
<feBlend mode="normal" in2="effect1_dropShadow_1_11" result="effect2_dropShadow_1_11"/>
<feColorMatrix in="SourceAlpha" type="matrix" values="0 0 0 0 0 0 0 0 0 0 0 0 0 0 0 0 0 0 127 0" result="hardAlpha"/>
<feOffset/>
<feGaussianBlur stdDeviation="4.86408"/>
<feColorMatrix type="matrix" values="0 0 0 0 0.878431 0 0 0 0 1 0 0 0 0 0.878431 0 0 0 1 0"/>
<feBlend mode="normal" in2="effect2_dropShadow_1_11" result="effect3_dropShadow_1_11"/>
<feColorMatrix in="SourceAlpha" type="matrix" values="0 0 0 0 0 0 0 0 0 0 0 0 0 0 0 0 0 0 127 0" result="hardAlpha"/>
<feOffset/>
<feGaussianBlur stdDeviation="9.72816"/>
<feColorMatrix type="matrix" values="0 0 0 0 0.878431 0 0 0 0 1 0 0 0 0 0.878431 0 0 0 1 0"/>
<feBlend mode="normal" in2="effect3_dropShadow_1_11" result="effect4_dropShadow_1_11"/>
<feColorMatrix in="SourceAlpha" type="matrix" values="0 0 0 0 0 0 0 0 0 0 0 0 0 0 0 0 0 0 127 0" result="hardAlpha"/>
<feOffset/>
<feGaussianBlur stdDeviation="16.6768"/>
<feColorMatrix type="matrix" values="0 0 0 0 0.878431 0 0 0 0 1 0 0 0 0 0.878431 0 0 0 1 0"/>
<feBlend mode="normal" in2="effect4_dropShadow_1_11" result="effect5_dropShadow_1_11"/>
<feColorMatrix in="SourceAlpha" type="matrix" values="0 0 0 0 0 0 0 0 0 0 0 0 0 0 0 0 0 0 127 0" result="hardAlpha"/>
<feOffset/>
<feGaussianBlur stdDeviation="29.1845"/>
<feColorMatrix type="matrix" values="0 0 0 0 0.878431 0 0 0 0 1 0 0 0 0 0.878431 0 0 0 1 0"/>
<feBlend mode="normal" in2="effect5_dropShadow_1_11" result="effect6_dropShadow_1_11"/>
<feBlend mode="normal" in="SourceGraphic" in2="effect6_dropShadow_1_11" result="shape"/>
</filter>
</defs>
</svg>
